;FLAVOR:Marlin
;TIME:2051
;Filament used: 1.13883m
;Layer height: 0.2
;MINX:80.458
;MINY:80.458
;MINZ:0.2
;MAXX:154.542
;MAXY:154.542
;MAXZ:10
;Generated with Cura_SteamEngine main
M140 S60
M105
M190 S60
M104 S200
M105
M109 S200
M82 ;absolute extrusion mode
; Ender 3 Custom Start G-code
G92 E0 ; Reset Extruder
G28 ; Home all axes
G1 Z2.0 F3000 ; Move Z Axis up little to prevent scratching of Heat Bed
G1 X0.1 Y20 Z0.3 F5000.0 ; Move to start position
G1 X0.1 Y200.0 Z0.3 F1500.0 E15 ; Draw the first line
G1 X0.4 Y200.0 Z0.3 F5000.0 ; Move to side a little
G1 X0.4 Y20 Z0.3 F1500.0 E30 ; Draw the second line
G92 E0 ; Reset Extruder
G1 Z2.0 F3000 ; Move Z Axis up little to prevent scratching of Heat Bed
G1 X5 Y20 Z0.3 F5000.0 ; Move over to prevent blob squish
G92 E0
G92 E0
G1 F2700 E-5
;LAYER_COUNT:50
;LAYER:0
M107
G0 F6000 X91.798 Y90.849 Z0.2
G0 X86.863 Y96.711
;TYPE:SKIRT
G1 F2700 E0
G1 F1200 X87.314 Y96.034 E0.02706
G1 X87.907 Y95.227 E0.06036
G1 X89.125 Y93.717 E0.12489
G1 X89.773 Y92.94 E0.15854
G1 X90.425 Y92.225 E0.19072
G1 X91.798 Y90.849 E0.25538
G1 X92.413 Y90.252 E0.28388
G1 X92.831 Y89.867 E0.30279
G1 X93.297 Y89.469 E0.32317
G1 X94.704 Y88.326 E0.38346
G1 X95.385 Y87.789 E0.41231
G1 X96.044 Y87.308 E0.43944
G1 X96.667 Y86.89 E0.46439
G1 X97.977 Y86.041 E0.51632
G1 X98.611 Y85.641 E0.54125
G1 X99.147 Y85.324 E0.56196
G1 X99.678 Y85.037 E0.58204
G1 X101.423 Y84.146 E0.6472
G1 X102.032 Y83.846 E0.66978
G1 X102.566 Y83.601 E0.68932
G1 X103.147 Y83.36 E0.71024
G1 X104.858 Y82.701 E0.77123
G1 X105.626 Y82.417 E0.79846
G1 X106.106 Y82.253 E0.81533
G1 X106.762 Y82.056 E0.83811
G1 X108.726 Y81.528 E0.90576
G1 X109.405 Y81.358 E0.92904
G1 X110.102 Y81.208 E0.95275
G1 X110.873 Y81.07 E0.9788
G1 X112.358 Y80.835 E1.02881
G1 X113.216 Y80.711 E1.05764
G1 X113.982 Y80.628 E1.08327
G1 X114.712 Y80.577 E1.10761
G1 X116.177 Y80.5 E1.1564
G1 X117.087 Y80.464 E1.18669
G1 X117.724 Y80.458 E1.20788
G1 X118.273 Y80.474 E1.22615
G1 X120.041 Y80.564 E1.28503
G1 X120.949 Y80.623 E1.31529
G1 X121.575 Y80.682 E1.3362
G1 X122.161 Y80.761 E1.35587
G1 X123.945 Y81.042 E1.41594
G1 X124.785 Y81.186 E1.44428
G1 X125.395 Y81.309 E1.46498
G1 X125.963 Y81.446 E1.48441
G1 X127.887 Y81.96 E1.55065
G1 X128.55 Y82.148 E1.57357
G1 X129.132 Y82.331 E1.59386
G1 X129.689 Y82.529 E1.61352
G1 X131.401 Y83.184 E1.67449
G1 X132.165 Y83.489 E1.70185
G1 X132.69 Y83.716 E1.72088
G1 X133.263 Y83.989 E1.74199
G1 X135.045 Y84.895 E1.80848
G1 X135.683 Y85.233 E1.83249
G1 X136.315 Y85.595 E1.85671
G1 X136.917 Y85.97 E1.8803
G1 X138.185 Y86.794 E1.9306
G1 X138.981 Y87.326 E1.96244
G1 X139.77 Y87.905 E1.99499
G1 X141.28 Y89.122 E2.0595
G1 X142.06 Y89.773 E2.09329
G1 X142.775 Y90.425 E2.12547
G1 X144.151 Y91.798 E2.19013
G1 X144.748 Y92.413 E2.21863
G1 X145.133 Y92.831 E2.23753
G1 X145.531 Y93.297 E2.25792
G1 X146.674 Y94.704 E2.31821
G1 X147.211 Y95.385 E2.34706
G1 X147.692 Y96.044 E2.37419
G1 X148.11 Y96.667 E2.39914
G1 X148.955 Y97.97 E2.4508
G1 X149.35 Y98.595 E2.47539
G1 X149.671 Y99.138 E2.49637
G1 X149.963 Y99.678 E2.51679
G1 X150.854 Y101.423 E2.58195
G1 X151.154 Y102.032 E2.60453
G1 X151.399 Y102.566 E2.62407
G1 X151.64 Y103.147 E2.645
G1 X152.365 Y105.033 E2.7122
G1 X152.613 Y105.711 E2.73621
G1 X152.896 Y106.603 E2.76734
G1 X153.472 Y108.726 E2.8405
G1 X153.642 Y109.405 E2.86378
G1 X153.792 Y110.102 E2.88749
G1 X153.93 Y110.873 E2.91354
G1 X154.165 Y112.358 E2.96355
G1 X154.288 Y113.206 E2.99205
G1 X154.373 Y113.986 E3.01815
G1 X154.423 Y114.713 E3.04238
G1 X154.507 Y116.327 E3.09614
G1 X154.536 Y117.072 E3.12094
G1 X154.542 Y117.706 E3.14202
G1 X154.526 Y118.274 E3.16092
G1 X154.436 Y120.041 E3.21977
G1 X154.377 Y120.948 E3.25
G1 X154.318 Y121.569 E3.27075
G1 X154.239 Y122.161 E3.29061
G1 X153.958 Y123.945 E3.35068
G1 X153.82 Y124.757 E3.37807
G1 X153.657 Y125.542 E3.40474
G1 X153.544 Y126 E3.42043
G1 X153.04 Y127.887 E3.48539
G1 X152.852 Y128.55 E3.50831
G1 X152.669 Y129.132 E3.52861
G1 X152.47 Y129.69 E3.54831
G1 X151.822 Y131.383 E3.6086
G1 X151.512 Y132.161 E3.63646
G1 X151.277 Y132.707 E3.65623
G1 X151.011 Y133.263 E3.67673
G1 X150.117 Y135.023 E3.74239
G1 X149.784 Y135.655 E3.76615
G1 X149.402 Y136.321 E3.79168
G1 X149.03 Y136.918 E3.81508
G1 X148.206 Y138.186 E3.86537
G1 X147.664 Y138.996 E3.89779
G1 X147.086 Y139.782 E3.93024
G1 X145.876 Y141.282 E3.99434
G1 X145.296 Y141.979 E4.0245
G1 X144.903 Y142.425 E4.04427
G1 X144.494 Y142.854 E4.06398
G1 X143.205 Y144.147 E4.12471
G1 X142.587 Y144.748 E4.15338
G1 X142.169 Y145.133 E4.17228
G1 X141.703 Y145.531 E4.19266
G1 X140.296 Y146.674 E4.25296
G1 X139.615 Y147.211 E4.2818
G1 X138.956 Y147.692 E4.30894
G1 X138.333 Y148.11 E4.33389
G1 X137.023 Y148.959 E4.38581
G1 X136.389 Y149.359 E4.41074
G1 X135.853 Y149.676 E4.43146
G1 X135.322 Y149.963 E4.45153
G1 X133.577 Y150.854 E4.5167
G1 X132.968 Y151.154 E4.53928
G1 X132.434 Y151.399 E4.55882
G1 X131.853 Y151.64 E4.57974
G1 X130.142 Y152.299 E4.64072
G1 X129.374 Y152.583 E4.66796
G1 X128.894 Y152.747 E4.68483
G1 X128.237 Y152.944 E4.70764
G1 X126.284 Y153.469 E4.7749
G1 X125.608 Y153.639 E4.79809
G1 X124.893 Y153.794 E4.82242
G1 X124.127 Y153.93 E4.8483
G1 X122.642 Y154.165 E4.8983
G1 X121.784 Y154.289 E4.92714
G1 X121.018 Y154.372 E4.95276
G1 X120.288 Y154.423 E4.9771
G1 X118.67 Y154.507 E5.03099
G1 X117.919 Y154.536 E5.05599
G1 X117.285 Y154.542 E5.07707
G1 X116.726 Y154.526 E5.09567
G1 X114.959 Y154.436 E5.15452
G1 X114.052 Y154.377 E5.18475
G1 X113.431 Y154.318 E5.2055
G1 X112.839 Y154.239 E5.22536
G1 X111.055 Y153.958 E5.28543
G1 X110.215 Y153.814 E5.31378
G1 X109.605 Y153.691 E5.33448
G1 X109.037 Y153.554 E5.35391
G1 X107.113 Y153.04 E5.42015
G1 X106.45 Y152.852 E5.44307
G1 X105.868 Y152.669 E5.46336
G1 X105.311 Y152.471 E5.48302
G1 X103.599 Y151.816 E5.54399
G1 X102.83 Y151.509 E5.57153
G1 X102.275 Y151.268 E5.59165
G1 X101.741 Y151.013 E5.61133
G1 X100.13 Y150.196 E5.67141
G1 X99.324 Y149.771 E5.70172
G1 X98.679 Y149.401 E5.72645
G1 X98.08 Y149.027 E5.74994
G1 X96.705 Y148.132 E5.8045
G1 X96.026 Y147.679 E5.83165
G1 X95.226 Y147.092 E5.86465
G1 X93.718 Y145.876 E5.92909
G1 X92.94 Y145.227 E5.96278
G1 X92.225 Y144.575 E5.99497
G1 X90.849 Y143.202 E6.05962
G1 X90.251 Y142.587 E6.08815
G1 X89.863 Y142.165 E6.10722
G1 X89.47 Y141.704 E6.12737
G1 X88.326 Y140.296 E6.18771
G1 X87.787 Y139.613 E6.21664
G1 X87.308 Y138.956 E6.24369
G1 X86.89 Y138.333 E6.26864
G1 X86.043 Y137.026 E6.32044
G1 X85.642 Y136.391 E6.34542
G1 X85.314 Y135.836 E6.36686
G1 X85.037 Y135.322 E6.38628
G1 X84.219 Y133.721 E6.44608
G1 X83.84 Y132.953 E6.47456
G1 X83.594 Y132.419 E6.49412
G1 X83.36 Y131.853 E6.51449
G1 X82.639 Y129.977 E6.58134
G1 X82.377 Y129.263 E6.60663
G1 X82.084 Y128.339 E6.63887
G1 X81.53 Y126.281 E6.70976
G1 X81.358 Y125.596 E6.73325
G1 X81.202 Y124.874 E6.75782
G1 X81.11 Y124.365 E6.77502
G1 X80.811 Y122.484 E6.83837
G1 X80.71 Y121.78 E6.86202
G1 X80.628 Y121.017 E6.88755
G1 X80.577 Y120.287 E6.91189
G1 X80.493 Y118.671 E6.96571
G1 X80.464 Y117.922 E6.99064
G1 X80.458 Y117.287 E7.01176
G1 X80.474 Y116.726 E7.03042
G1 X80.564 Y114.959 E7.08927
G1 X80.623 Y114.052 E7.1195
G1 X80.682 Y113.431 E7.14025
G1 X80.761 Y112.839 E7.16011
G1 X81.066 Y110.907 E7.22517
G1 X81.183 Y110.225 E7.24818
G1 X81.345 Y109.451 E7.27448
G1 X81.51 Y108.792 E7.29708
G1 X81.959 Y107.117 E7.35476
G1 X82.147 Y106.453 E7.37771
G1 X82.336 Y105.852 E7.39866
G1 X82.529 Y105.311 E7.41777
G1 X83.184 Y103.599 E7.47874
G1 X83.489 Y102.835 E7.5061
G1 X83.734 Y102.269 E7.52661
G1 X83.99 Y101.737 E7.54625
G1 X84.892 Y99.961 E7.6125
G1 X85.229 Y99.324 E7.63647
G1 X85.599 Y98.679 E7.6612
G1 X85.973 Y98.08 E7.68469
G1 X86.863 Y96.711 E7.739
G1 F2700 E2.739
G0 F6000 X83.618 Y103.588
G1 F2700 E7.739
G1 F1200 X83.86 Y102.984 E7.76064
G1 X84.097 Y102.439 E7.7804
G1 X84.346 Y101.917 E7.79964
G1 X85.161 Y100.31 E7.85957
G1 X85.582 Y99.511 E7.88961
G1 X85.939 Y98.889 E7.91346
G1 X86.308 Y98.298 E7.93663
G1 X87.196 Y96.933 E7.9908
G1 X87.647 Y96.256 E8.01785
G1 X88.219 Y95.478 E8.04997
G1 X89.554 Y93.824 E8.12066
G1 X90.079 Y93.196 E8.14789
G1 X90.708 Y92.508 E8.17889
G1 X92.081 Y91.132 E8.24355
G1 X92.691 Y90.539 E8.27184
G1 X93.094 Y90.169 E8.29004
G1 X93.549 Y89.78 E8.30995
G1 X94.956 Y88.637 E8.37024
G1 X95.632 Y88.103 E8.39889
G1 X96.267 Y87.64 E8.42503
G1 X96.73 Y87.328 E8.4436
G1 X98.191 Y86.379 E8.50155
G1 X98.825 Y85.979 E8.52648
G1 X99.341 Y85.674 E8.54642
G1 X99.86 Y85.393 E8.56605
G1 X101.6 Y84.505 E8.63102
G1 X102.209 Y84.205 E8.6536
G1 X102.723 Y83.969 E8.67241
G1 X103.291 Y83.733 E8.69287
G1 X105.002 Y83.074 E8.75385
G1 X105.765 Y82.792 E8.78091
G1 X106.227 Y82.634 E8.79715
G1 X106.866 Y82.442 E8.81934
G1 X108.639 Y81.964 E8.88041
G1 X109.503 Y81.746 E8.91005
G1 X110.174 Y81.601 E8.93288
G1 X110.935 Y81.465 E8.9586
G1 X112.42 Y81.23 E9.0086
G1 X113.273 Y81.107 E9.03727
G1 X114.011 Y81.027 E9.06196
G1 X114.52 Y80.99 E9.07893
G1 X116.347 Y80.893 E9.13978
G1 X117.102 Y80.864 E9.16491
G1 X117.716 Y80.858 E9.18533
G1 X118.253 Y80.874 E9.2032
G1 X120.181 Y80.973 E9.26741
G1 X120.922 Y81.022 E9.29211
G1 X121.526 Y81.079 E9.31229
G1 X122.098 Y81.156 E9.33149
G1 X123.882 Y81.437 E9.39156
G1 X124.717 Y81.58 E9.41973
G1 X125.305 Y81.698 E9.43968
G1 X125.86 Y81.833 E9.45868
G1 X127.778 Y82.345 E9.5247
G1 X128.441 Y82.533 E9.54762
G1 X129.002 Y82.709 E9.56718
G1 X129.546 Y82.903 E9.58639
G1 X131.258 Y83.558 E9.64736
G1 X132.016 Y83.861 E9.67451
G1 X132.522 Y84.079 E9.69283
G1 X133.082 Y84.345 E9.71345
G1 X134.692 Y85.162 E9.7735
G1 X135.495 Y85.586 E9.8037
G1 X136.105 Y85.936 E9.82709
G1 X136.699 Y86.306 E9.85037
G1 X138.083 Y87.206 E9.90528
G1 X138.759 Y87.658 E9.93233
G1 X139.519 Y88.217 E9.9637
G1 X141.176 Y89.554 E10.03452
G1 X141.804 Y90.079 E10.06174
G1 X142.492 Y90.708 E10.09275
G1 X143.868 Y92.081 E10.1574
G1 X144.461 Y92.691 E10.1857
G1 X144.831 Y93.094 E10.20389
G1 X145.22 Y93.549 E10.2238
G1 X146.363 Y94.956 E10.2841
G1 X146.897 Y95.632 E10.31275
G1 X147.36 Y96.267 E10.33889
G1 X147.672 Y96.73 E10.35746
G1 X148.616 Y98.184 E10.41512
G1 X149.011 Y98.809 E10.43971
G1 X149.321 Y99.332 E10.45993
G1 X149.607 Y99.86 E10.4799
G1 X150.495 Y101.6 E10.54487
G1 X150.795 Y102.209 E10.56745
G1 X151.031 Y102.723 E10.58626
G1 X151.267 Y103.291 E10.60672
G1 X151.926 Y105.002 E10.66771
G1 X152.237 Y105.849 E10.69772
G1 X152.51 Y106.708 E10.72769
G1 X153.084 Y108.824 E10.80062
G1 X153.254 Y109.503 E10.8239
G1 X153.399 Y110.174 E10.84673
G1 X153.535 Y110.935 E10.87244
G1 X153.77 Y112.42 E10.92245
G1 X153.892 Y113.263 E10.95078
G1 X153.974 Y114.014 E10.97591
G1 X154.011 Y114.527 E10.99301
G1 X154.107 Y116.343 E11.0535
G1 X154.136 Y117.088 E11.07829
G1 X154.142 Y117.698 E11.09858
G1 X154.126 Y118.253 E11.11705
G1 X154.027 Y120.18 E11.18123
G1 X153.978 Y120.921 E11.20593
G1 X153.921 Y121.52 E11.22594
G1 X153.844 Y122.098 E11.24533
G1 X153.541 Y124.016 E11.30992
G1 X153.426 Y124.69 E11.33266
G1 X153.268 Y125.446 E11.35835
G1 X153.104 Y126.105 E11.38093
G1 X152.697 Y127.626 E11.4333
G1 X152.467 Y128.441 E11.46147
G1 X152.291 Y129.002 E11.48102
G1 X152.097 Y129.547 E11.50027
G1 X151.449 Y131.24 E11.56056
G1 X151.141 Y132.013 E11.58823
G1 X150.914 Y132.538 E11.60726
G1 X150.655 Y133.082 E11.6273
G1 X149.838 Y134.692 E11.68735
G1 X149.43 Y135.468 E11.71651
G1 X149.062 Y136.11 E11.74112
G1 X148.694 Y136.7 E11.76425
G1 X147.79 Y138.09 E11.8194
G1 X147.332 Y138.774 E11.84677
G1 X146.774 Y139.531 E11.87805
G1 X145.45 Y141.171 E11.94816
G1 X144.989 Y141.723 E11.97208
G1 X144.61 Y142.152 E11.99112
G1 X144.211 Y142.572 E12.01038
G1 X142.922 Y143.865 E12.07111
G1 X142.309 Y144.461 E12.09955
G1 X141.906 Y144.831 E12.11774
G1 X141.451 Y145.22 E12.13765
G1 X140.044 Y146.363 E12.19794
G1 X139.368 Y146.897 E12.2266
G1 X138.733 Y147.36 E12.25274
G1 X138.27 Y147.672 E12.27131
G1 X136.809 Y148.621 E12.32925
G1 X136.175 Y149.021 E12.35418
G1 X135.659 Y149.326 E12.37412
G1 X135.14 Y149.607 E12.39375
G1 X133.4 Y150.495 E12.45872
G1 X132.791 Y150.795 E12.4813
G1 X132.277 Y151.031 E12.50011
G1 X131.709 Y151.267 E12.52057
G1 X129.998 Y151.926 E12.58155
G1 X129.235 Y152.208 E12.60861
G1 X128.773 Y152.366 E12.62485
G1 X128.133 Y152.558 E12.64707
G1 X126.359 Y153.036 E12.70818
G1 X125.51 Y153.251 E12.73731
G1 X124.821 Y153.4 E12.76076
G1 X124.065 Y153.535 E12.7863
G1 X122.58 Y153.77 E12.8363
G1 X121.727 Y153.893 E12.86497
G1 X120.989 Y153.973 E12.88966
G1 X120.48 Y154.01 E12.90663
G1 X118.655 Y154.107 E12.96742
G1 X117.904 Y154.136 E12.99242
G1 X117.292 Y154.142 E13.01277
G1 X116.747 Y154.126 E13.03091
G1 X114.82 Y154.027 E13.09508
G1 X114.079 Y153.978 E13.11978
G1 X113.48 Y153.921 E13.1398
G1 X112.902 Y153.844 E13.15919
G1 X111.118 Y153.563 E13.21926
G1 X110.283 Y153.42 E13.24743
G1 X109.695 Y153.302 E13.26738
G1 X109.14 Y153.167 E13.28638
G1 X107.222 Y152.655 E13.3524
G1 X106.559 Y152.467 E13.37533
G1 X105.998 Y152.291 E13.39488
G1 X105.454 Y152.097 E13.41409
G1 X103.742 Y151.442 E13.47506
G1 X102.979 Y151.137 E13.50239
G1 X102.444 Y150.906 E13.52177
G1 X101.922 Y150.656 E13.54102
G1 X100.148 Y149.755 E13.6072
G1 X99.511 Y149.418 E13.63117
G1 X98.889 Y149.061 E13.65502
G1 X98.298 Y148.692 E13.67819
G1 X96.927 Y147.8 E13.73259
G1 X96.248 Y147.347 E13.75974
G1 X95.477 Y146.781 E13.79155
G1 X93.969 Y145.565 E13.85599
G1 X93.196 Y144.921 E13.88945
G1 X92.508 Y144.292 E13.92045
G1 X91.132 Y142.919 E13.98511
G1 X90.538 Y142.308 E14.01345
G1 X90.165 Y141.902 E14.03179
G1 X89.78 Y141.451 E14.05151
G1 X88.534 Y139.916 E14.11727
G1 X88.101 Y139.366 E14.14055
G1 X87.64 Y138.733 E14.16659
G1 X87.328 Y138.27 E14.18516
G1 X86.381 Y136.813 E14.24296
G1 X85.98 Y136.178 E14.26794
G1 X85.664 Y135.642 E14.28863
G1 X85.393 Y135.14 E14.30761
G1 X84.502 Y133.395 E14.37277
G1 X84.198 Y132.777 E14.39568
G1 X83.962 Y132.262 E14.41452
G1 X83.733 Y131.709 E14.43443
G1 X83.074 Y129.998 E14.49541
G1 X82.753 Y129.126 E14.52632
G1 X82.47 Y128.235 E14.55741
G1 X81.918 Y126.183 E14.62809
G1 X81.746 Y125.498 E14.65158
G1 X81.596 Y124.802 E14.67526
G1 X81.465 Y124.064 E14.70019
G1 X81.207 Y122.427 E14.75531
G1 X81.106 Y121.723 E14.77896
G1 X81.027 Y120.988 E14.80355
G1 X80.99 Y120.48 E14.82049
G1 X80.893 Y118.655 E14.88128
G1 X80.864 Y117.906 E14.90621
G1 X80.858 Y117.294 E14.92656
G1 X80.874 Y116.747 E14.94476
G1 X80.973 Y114.82 E15.00894
G1 X81.022 Y114.079 E15.03364
G1 X81.079 Y113.48 E15.05365
G1 X81.156 Y112.902 E15.07305
G1 X81.437 Y111.118 E15.13312
G1 X81.578 Y110.293 E15.16095
G1 X81.733 Y109.546 E15.18633
G1 X81.896 Y108.895 E15.20865
G1 X82.303 Y107.374 E15.26102
G1 X82.532 Y106.562 E15.28908
G1 X82.714 Y105.983 E15.30926
G1 X82.903 Y105.454 E15.32795
G1 X83.618 Y103.588 E15.39441
G1 F2700 E10.39441
G0 F6000 X81.832 Y111.18
G1 F2700 E15.39441
G1 F1200 X81.972 Y110.36 E15.42208
G1 X82.122 Y109.642 E15.44648
G1 X82.283 Y108.998 E15.46855
G1 X82.729 Y107.335 E15.52582
G1 X82.917 Y106.671 E15.54877
G1 X83.092 Y106.113 E15.56822
G1 X83.276 Y105.597 E15.58645
G1 X83.931 Y103.885 E15.64741
G1 X84.232 Y103.132 E15.67438
G1 X84.459 Y102.608 E15.69338
G1 X84.703 Y102.098 E15.71218
G1 X85.518 Y100.491 E15.77211
G1 X85.936 Y99.698 E15.80193
G1 X86.279 Y99.1 E15.82485
G1 X86.643 Y98.516 E15.84774
G1 X87.529 Y97.155 E15.90176
G1 X87.98 Y96.478 E15.92881
G1 X88.53 Y95.729 E15.95972
G1 X89.861 Y94.081 E16.03018
G1 X90.386 Y93.453 E16.0574
G1 X90.992 Y92.79 E16.08728
G1 X92.487 Y91.293 E16.15764
G1 X92.969 Y90.826 E16.17997
G1 X93.357 Y90.47 E16.19748
G1 X93.802 Y90.09 E16.21694
G1 X95.209 Y88.947 E16.27723
G1 X95.88 Y88.417 E16.30567
G1 X96.491 Y87.971 E16.33083
G1 X97.102 Y87.561 E16.35531
G1 X98.404 Y86.717 E16.40692
G1 X99.038 Y86.317 E16.43185
G1 X99.535 Y86.023 E16.45105
G1 X100.042 Y85.749 E16.47022
G1 X101.643 Y84.931 E16.53002
G1 X102.386 Y84.564 E16.55758
G1 X102.88 Y84.336 E16.57568
G1 X103.435 Y84.107 E16.59565
G1 X105.289 Y83.394 E16.66171
G1 X105.903 Y83.168 E16.68348
G1 X106.347 Y83.016 E16.69908
G1 X106.97 Y82.829 E16.72072
G1 X108.921 Y82.304 E16.78792
G1 X109.6 Y82.134 E16.8112
G1 X110.246 Y81.995 E16.83318
G1 X110.998 Y81.86 E16.85859
G1 X112.483 Y81.625 E16.90859
G1 X113.329 Y81.503 E16.93702
G1 X114.04 Y81.426 E16.96081
