;FLAVOR:Marlin
;TIME:3435
;Filament used: 1.68703m
;Layer height: 0.2
;MINX:58.889
;MINY:91.512
;MINZ:0.2
;MAXX:169.634
;MAXY:144.378
;MAXZ:10
;Generated with Cura_SteamEngine main
M140 S60
M105
M190 S60
M104 S200
M105
M109 S200
M82 ;absolute extrusion mode
; Ender 3 Custom Start G-code
G92 E0 ; Reset Extruder
G28 ; Home all axes
G1 Z2.0 F3000 ; Move Z Axis up little to prevent scratching of Heat Bed
G1 X0.1 Y20 Z0.3 F5000.0 ; Move to start position
G1 X0.1 Y200.0 Z0.3 F1500.0 E15 ; Draw the first line
G1 X0.4 Y200.0 Z0.3 F5000.0 ; Move to side a little
G1 X0.4 Y20 Z0.3 F1500.0 E30 ; Draw the second line
G92 E0 ; Reset Extruder
G1 Z2.0 F3000 ; Move Z Axis up little to prevent scratching of Heat Bed
G1 X5 Y20 Z0.3 F5000.0 ; Move over to prevent blob squish
G92 E0
G92 E0
G1 F2700 E-5
;LAYER_COUNT:50
;LAYER:0
M107
G0 F6000 X69.973 Y97.103 Z0.2
G0 X60.953 Y108.25
;TYPE:SKIRT
G1 F2700 E0
G1 F1200 X61.324 Y107.414 E0.03042
G1 X61.696 Y106.662 E0.05833
G1 X62.174 Y105.75 E0.09257
G1 X62.471 Y105.223 E0.11269
G1 X62.761 Y104.752 E0.13109
G1 X63.245 Y104.002 E0.16078
G1 X63.601 Y103.47 E0.18207
G1 X64.116 Y102.763 E0.21116
G1 X64.665 Y102.069 E0.24059
G1 X65.27 Y101.338 E0.27215
G1 X65.653 Y100.902 E0.29145
G1 X66.064 Y100.467 E0.31136
G1 X66.688 Y99.84 E0.34078
G1 X67.169 Y99.372 E0.3631
G1 X67.822 Y98.786 E0.39228
G1 X68.703 Y98.06 E0.43025
G1 X69.264 Y97.618 E0.45401
G1 X69.973 Y97.103 E0.48315
G1 X70.915 Y96.48 E0.52072
G1 X71.529 Y96.094 E0.54484
G1 X72.287 Y95.659 E0.57391
G1 X73.257 Y95.155 E0.61026
G1 X73.909 Y94.833 E0.63445
G1 X74.721 Y94.472 E0.66401
G1 X75.527 Y94.152 E0.69285
G1 X76.447 Y93.81 E0.72549
G1 X77.266 Y93.545 E0.75412
G1 X78.066 Y93.32 E0.78176
G1 X79.086 Y93.059 E0.81678
G1 X79.915 Y92.884 E0.84496
G1 X81.023 Y92.698 E0.88233
G1 X81.753 Y92.593 E0.90686
G1 X82.347 Y92.524 E0.92675
G1 X82.92 Y92.48 E0.94586
G1 X83.805 Y92.433 E0.97534
G1 X84.475 Y92.408 E0.99764
G1 X85.08 Y92.402 E1.01776
G1 X85.644 Y92.417 E1.03653
G1 X86.401 Y92.455 E1.06174
G1 X87.155 Y92.504 E1.08687
G1 X88.054 Y92.6 E1.11694
G1 X88.938 Y92.731 E1.14666
G1 X89.872 Y92.89 E1.17818
G1 X90.459 Y93.008 E1.19809
G1 X91.562 Y93.263 E1.23574
G1 X92.912 Y93.589 E1.28194
G1 X95.389 Y94.114 E1.36615
G1 X97.842 Y94.562 E1.44909
G1 X100.341 Y94.946 E1.53318
G1 X102.832 Y95.256 E1.61667
G1 X105.347 Y95.497 E1.7007
G1 X107.847 Y95.666 E1.78404
G1 X110.392 Y95.765 E1.86875
G1 X112.885 Y95.791 E1.95168
G1 X115.404 Y95.748 E2.03547
G1 X117.899 Y95.633 E2.11854
G1 X120.449 Y95.444 E2.20359
G1 X122.933 Y95.189 E2.28664
G1 X125.416 Y94.863 E2.36994
G1 X127.908 Y94.463 E2.45388
G1 X130.397 Y93.992 E2.53813
G1 X132.807 Y93.464 E2.62019
G1 X136.225 Y92.593 E2.73751
G1 X137.104 Y92.358 E2.76777
G1 X137.839 Y92.172 E2.79299
G1 X138.469 Y92.032 E2.81445
G1 X139.024 Y91.931 E2.83322
G1 X139.821 Y91.804 E2.86006
G1 X140.506 Y91.705 E2.88308
G1 X141.121 Y91.634 E2.90367
G1 X141.672 Y91.591 E2.92205
G1 X142.371 Y91.552 E2.94534
G1 X143.244 Y91.518 E2.97439
G1 X143.849 Y91.512 E2.99452
G1 X144.413 Y91.527 E3.01328
G1 X145.171 Y91.565 E3.03853
G1 X145.924 Y91.614 E3.06362
G1 X146.821 Y91.71 E3.09363
G1 X147.98 Y91.885 E3.13261
G1 X148.641 Y92 E3.15493
G1 X149.192 Y92.11 E3.17362
G1 X149.794 Y92.254 E3.1942
G1 X150.603 Y92.469 E3.22205
G1 X151.281 Y92.661 E3.24548
G1 X152.001 Y92.892 E3.27063
G1 X152.753 Y93.168 E3.29728
G1 X153.761 Y93.566 E3.33332
G1 X154.354 Y93.82 E3.35478
G1 X154.916 Y94.088 E3.37549
G1 X155.453 Y94.359 E3.39549
G1 X156.292 Y94.801 E3.42703
G1 X156.799 Y95.086 E3.44638
G1 X157.282 Y95.382 E3.46522
G1 X158.006 Y95.85 E3.49389
G1 X158.561 Y96.221 E3.5161
G1 X159.273 Y96.739 E3.54538
G1 X159.967 Y97.288 E3.57481
G1 X160.698 Y97.893 E3.60637
G1 X161.122 Y98.264 E3.62511
G1 X161.564 Y98.681 E3.64532
G1 X162.059 Y99.172 E3.66851
G1 X162.664 Y99.792 E3.69732
G1 X163.25 Y100.445 E3.72651
G1 X163.976 Y101.326 E3.76448
G1 X164.418 Y101.887 E3.78823
G1 X164.933 Y102.596 E3.81738
G1 X165.398 Y103.294 E3.84527
G1 X165.93 Y104.133 E3.87831
G1 X166.362 Y104.881 E3.90704
G1 X166.876 Y105.867 E3.94403
G1 X167.209 Y106.544 E3.96912
G1 X167.475 Y107.128 E3.99046
G1 X167.693 Y107.657 E4.00949
G1 X167.916 Y108.232 E4.03001
G1 X168.224 Y109.066 E4.05958
G1 X168.488 Y109.877 E4.08794
G1 X168.703 Y110.639 E4.11428
G1 X168.975 Y111.7 E4.15071
G1 X169.152 Y112.536 E4.17913
G1 X169.337 Y113.638 E4.21629
G1 X169.441 Y114.358 E4.24049
G1 X169.511 Y114.958 E4.26058
G1 X169.557 Y115.544 E4.28013
G1 X169.595 Y116.238 E4.30325
G1 X169.628 Y117.084 E4.33141
G1 X169.634 Y117.688 E4.3515
G1 X169.619 Y118.268 E4.3708
G1 X169.581 Y119.021 E4.39587
G1 X169.533 Y119.762 E4.42057
G1 X169.439 Y120.652 E4.45034
G1 X169.262 Y121.831 E4.48999
G1 X169.147 Y122.493 E4.51234
G1 X169.036 Y123.046 E4.5311
G1 X168.892 Y123.648 E4.55169
G1 X168.677 Y124.455 E4.57946
G1 X168.486 Y125.13 E4.60279
G1 X168.211 Y125.971 E4.63222
G1 X167.802 Y127.062 E4.67098
G1 X167.546 Y127.699 E4.69381
G1 X167.316 Y128.229 E4.71303
G1 X167.076 Y128.733 E4.73159
G1 X166.697 Y129.483 E4.75954
G1 X166.366 Y130.112 E4.78318
G1 X165.927 Y130.871 E4.81235
G1 X165.291 Y131.869 E4.85171
G1 X164.905 Y132.444 E4.87474
G1 X164.395 Y133.143 E4.90352
G1 X163.854 Y133.826 E4.9325
G1 X163.253 Y134.552 E4.96385
G1 X162.882 Y134.976 E4.98259
G1 X162.465 Y135.418 E5.0028
G1 X161.974 Y135.913 E5.02599
G1 X161.354 Y136.518 E5.0548
G1 X160.701 Y137.104 E5.08398
G1 X159.82 Y137.83 E5.12195
G1 X159.259 Y138.272 E5.1457
G1 X158.546 Y138.789 E5.175
G1 X157.867 Y139.241 E5.20213
G1 X156.995 Y139.794 E5.23647
G1 X156.473 Y140.103 E5.25665
G1 X155.977 Y140.372 E5.27541
G1 X155.429 Y140.654 E5.29591
G1 X154.59 Y141.068 E5.32703
G1 X153.887 Y141.384 E5.35266
G1 X153.152 Y141.678 E5.37899
G1 X152.126 Y142.061 E5.41542
G1 X151.254 Y142.346 E5.44593
G1 X150.177 Y142.645 E5.48311
G1 X149.45 Y142.829 E5.50805
G1 X148.596 Y143.009 E5.53708
G1 X147.779 Y143.148 E5.56464
G1 X146.767 Y143.297 E5.59866
G1 X146.179 Y143.366 E5.61835
G1 X145.602 Y143.411 E5.6376
G1 X144.908 Y143.449 E5.66072
G1 X144.068 Y143.482 E5.68868
G1 X143.465 Y143.488 E5.70874
G1 X142.879 Y143.473 E5.72824
G1 X142.121 Y143.435 E5.75348
G1 X141.368 Y143.386 E5.77858
G1 X140.477 Y143.291 E5.80838
G1 X139.616 Y143.164 E5.83733
G1 X138.639 Y142.998 E5.87029
G1 X138.029 Y142.875 E5.89098
G1 X136.968 Y142.628 E5.92722
G1 X135.668 Y142.313 E5.97171
G1 X133.189 Y141.787 E6.05599
G1 X130.664 Y141.325 E6.14137
G1 X128.235 Y140.952 E6.2231
G1 X125.717 Y140.637 E6.30751
G1 X123.248 Y140.399 E6.39001
G1 X120.685 Y140.225 E6.47545
G1 X118.197 Y140.126 E6.55827
G1 X115.679 Y140.098 E6.64202
G1 X113.185 Y140.141 E6.72498
G1 X110.629 Y140.257 E6.81008
G1 X108.151 Y140.44 E6.89273
G1 X105.626 Y140.698 E6.97715
G1 X103.127 Y141.025 E7.06097
G1 X100.662 Y141.419 E7.144
G1 X98.188 Y141.886 E7.22774
G1 X95.758 Y142.415 E7.31045
G1 X92.178 Y143.329 E7.43334
G1 X91.405 Y143.536 E7.45996
G1 X90.677 Y143.72 E7.48493
G1 X89.827 Y143.899 E7.51382
G1 X89.01 Y144.038 E7.54139
G1 X87.998 Y144.187 E7.57541
G1 X87.41 Y144.256 E7.5951
G1 X86.833 Y144.301 E7.61435
G1 X86.139 Y144.339 E7.63747
G1 X85.299 Y144.372 E7.66543
G1 X84.696 Y144.378 E7.68548
G1 X84.11 Y144.363 E7.70498
G1 X83.352 Y144.325 E7.73022
G1 X82.599 Y144.276 E7.75532
G1 X81.702 Y144.18 E7.78533
G1 X80.543 Y144.005 E7.82431
G1 X79.882 Y143.89 E7.84663
G1 X79.331 Y143.78 E7.86532
G1 X78.729 Y143.636 E7.8859
G1 X77.92 Y143.421 E7.91374
G1 X77.242 Y143.229 E7.93718
G1 X76.522 Y142.998 E7.96233
G1 X75.759 Y142.718 E7.98936
G1 X74.729 Y142.31 E8.02621
G1 X74.173 Y142.072 E8.04633
G1 X73.59 Y141.795 E8.06779
G1 X72.892 Y141.44 E8.09384
G1 X72.242 Y141.097 E8.11829
G1 X71.486 Y140.658 E8.14736
G1 X70.517 Y140.04 E8.18559
G1 X69.962 Y139.669 E8.20779
G1 X69.25 Y139.151 E8.23708
G1 X68.556 Y138.602 E8.26651
G1 X67.822 Y137.995 E8.29819
G1 X67.402 Y137.627 E8.31676
G1 X66.959 Y137.209 E8.33702
G1 X66.464 Y136.718 E8.36021
G1 X65.858 Y136.097 E8.38907
G1 X65.271 Y135.443 E8.4183
G1 X64.547 Y134.564 E8.45617
G1 X64.105 Y134.003 E8.47993
G1 X63.588 Y133.29 E8.50922
G1 X62.98 Y132.37 E8.5459
G1 X62.579 Y131.732 E8.57096
G1 X62.148 Y130.983 E8.5997
G1 X61.753 Y130.229 E8.62801
G1 X61.313 Y129.343 E8.66092
G1 X60.952 Y128.529 E8.69053
G1 X60.54 Y127.482 E8.72795
G1 X60.297 Y126.822 E8.75135
G1 X60.029 Y125.991 E8.78039
G1 X59.808 Y125.203 E8.80761
G1 X59.548 Y124.187 E8.84249
G1 X59.417 Y123.603 E8.8624
G1 X59.309 Y123.017 E8.88221
G1 X59.176 Y122.182 E8.91034
G1 X59.081 Y121.52 E8.93258
G1 X59.011 Y120.915 E8.95284
G1 X58.968 Y120.364 E8.97122
G1 X58.929 Y119.665 E8.9945
G1 X58.895 Y118.792 E9.02356
G1 X58.889 Y118.187 E9.04369
G1 X58.904 Y117.623 E9.06245
G1 X58.942 Y116.866 E9.08766
G1 X58.991 Y116.112 E9.11279
G1 X59.087 Y115.211 E9.14293
G1 X59.218 Y114.328 E9.17262
G1 X59.368 Y113.435 E9.20274
G1 X59.554 Y112.56 E9.23249
G1 X59.773 Y111.704 E9.26188
G1 X60.038 Y110.755 E9.29465
G1 X60.272 Y110.028 E9.32005
G1 X60.545 Y109.283 E9.34644
G1 X60.953 Y108.25 E9.38338
G1 F2700 E4.38338
G0 F6000 X59.689 Y118.201
G1 F2700 E9.38338
G1 F1200 X59.703 Y117.662 E9.40131
G1 X59.74 Y116.918 E9.42609
G1 X59.789 Y116.164 E9.45122
G1 X59.878 Y115.328 E9.47918
G1 X60.044 Y114.225 E9.51628
G1 X60.156 Y113.569 E9.53842
G1 X60.329 Y112.758 E9.566
G1 X60.548 Y111.902 E9.59539
G1 X60.808 Y110.973 E9.62747
G1 X61.024 Y110.299 E9.65101
G1 X61.289 Y109.577 E9.67659
G1 X61.697 Y108.544 E9.71353
G1 X62.041 Y107.768 E9.74177
G1 X62.413 Y107.016 E9.76967
G1 X62.881 Y106.124 E9.80317
G1 X63.157 Y105.635 E9.82185
G1 X63.433 Y105.185 E9.83941
G1 X63.91 Y104.447 E9.86863
G1 X64.266 Y103.915 E9.88992
G1 X64.743 Y103.26 E9.91687
G1 X65.292 Y102.566 E9.94631
G1 X65.884 Y101.85 E9.97721
G1 X66.24 Y101.445 E9.99514
G1 X66.632 Y101.03 E10.01413
G1 X67.246 Y100.413 E10.04308
G1 X67.727 Y99.945 E10.0654
G1 X68.332 Y99.402 E10.09244
G1 X69.003 Y98.846 E10.12142
G1 X69.76 Y98.246 E10.15355
G1 X70.417 Y97.769 E10.18055
G1 X71.115 Y97.304 E10.20845
G1 X71.955 Y96.772 E10.24152
G1 X72.658 Y96.368 E10.26849
G1 X73.402 Y95.979 E10.29641
G1 X74.263 Y95.551 E10.32839
G1 X75.016 Y95.216 E10.3558
G1 X76.065 Y94.803 E10.3933
G1 X76.723 Y94.561 E10.41662
G1 X77.482 Y94.315 E10.44316
G1 X78.282 Y94.09 E10.4708
G1 X79.281 Y93.835 E10.50509
G1 X80.05 Y93.672 E10.53123
G1 X80.868 Y93.532 E10.55884
G1 X81.867 Y93.385 E10.59242
G1 X82.418 Y93.321 E10.61087
G1 X82.964 Y93.278 E10.62909
G1 X83.835 Y93.232 E10.6581
G1 X84.505 Y93.207 E10.6804
G1 X85.066 Y93.202 E10.69906
G1 X85.605 Y93.216 E10.71699
G1 X86.349 Y93.253 E10.74177
G1 X87.103 Y93.302 E10.7669
G1 X87.937 Y93.391 E10.79479
G1 X88.821 Y93.522 E10.82452
G1 X89.735 Y93.678 E10.85536
G1 X90.279 Y93.788 E10.87381
G1 X91.374 Y94.041 E10.91119
G1 X92.736 Y94.37 E10.9578
G1 X95.222 Y94.897 E11.04232
G1 X97.72 Y95.353 E11.12678
G1 X100.224 Y95.737 E11.21103
G1 X102.761 Y96.053 E11.29607
G1 X105.254 Y96.292 E11.37936
G1 X107.832 Y96.466 E11.4653
G1 X110.353 Y96.565 E11.54922
G1 X112.89 Y96.592 E11.6336
G1 X115.418 Y96.548 E11.7177
G1 X117.96 Y96.431 E11.80233
G1 X120.482 Y96.244 E11.88645
G1 X123.05 Y95.98 E11.97231
G1 X125.544 Y95.653 E12.05597
G1 X128.035 Y95.253 E12.13988
G1 X130.547 Y94.778 E12.22491
G1 X132.996 Y94.242 E12.30829
G1 X136.472 Y93.355 E12.42761
G1 X137.301 Y93.134 E12.45615
G1 X138.036 Y92.948 E12.48136
G1 X138.62 Y92.818 E12.50126
G1 X139.151 Y92.721 E12.51922
G1 X139.935 Y92.596 E12.54562
G1 X140.62 Y92.497 E12.56864
G1 X141.191 Y92.431 E12.58776
G1 X141.717 Y92.39 E12.60531
G1 X142.604 Y92.342 E12.63485
G1 X143.274 Y92.317 E12.65715
G1 X143.835 Y92.312 E12.67581
G1 X144.374 Y92.326 E12.69374
G1 X144.951 Y92.354 E12.71296
G1 X145.872 Y92.413 E12.74365
G1 X146.704 Y92.501 E12.77148
G1 X147.589 Y92.632 E12.80124
G1 X148.504 Y92.788 E12.83211
G1 X149.015 Y92.89 E12.84944
G1 X149.589 Y93.027 E12.86907
G1 X150.385 Y93.239 E12.89647
G1 X151.063 Y93.431 E12.9199
G1 X151.73 Y93.645 E12.9432
G1 X152.459 Y93.912 E12.96902
G1 X153.467 Y94.31 E13.00507
G1 X154.017 Y94.546 E13.02497
G1 X154.555 Y94.802 E13.04479
G1 X155.268 Y95.164 E13.07139
G1 X155.918 Y95.508 E13.09585
G1 X156.388 Y95.772 E13.11378
G1 X156.849 Y96.055 E13.13177
G1 X157.562 Y96.515 E13.15999
G1 X158.117 Y96.886 E13.18219
G1 X158.776 Y97.366 E13.20931
G1 X159.47 Y97.915 E13.23874
G1 X160.186 Y98.507 E13.26964
G1 X160.579 Y98.852 E13.28703
G1 X161 Y99.249 E13.30628
G1 X161.623 Y99.869 E13.33551
G1 X162.091 Y100.35 E13.35783
G1 X162.634 Y100.955 E13.38487
G1 X163.19 Y101.626 E13.41386
G1 X163.79 Y102.383 E13.44598
G1 X164.267 Y103.04 E13.47299
G1 X164.732 Y103.738 E13.50088
G1 X165.254 Y104.56 E13.53327
G1 X165.654 Y105.254 E13.55991
G1 X166.158 Y106.22 E13.59615
G1 X166.491 Y106.897 E13.62125
G1 X166.738 Y107.439 E13.64106
G1 X166.947 Y107.946 E13.6593
G1 X167.233 Y108.687 E13.68571
G1 X167.474 Y109.342 E13.70893
G1 X167.718 Y110.094 E13.73522
G1 X167.933 Y110.856 E13.76156
G1 X168.199 Y111.896 E13.79726
G1 X168.363 Y112.671 E13.82361
G1 X168.545 Y113.753 E13.8601
G1 X168.649 Y114.473 E13.8843
G1 X168.714 Y115.029 E13.90291
G1 X168.758 Y115.587 E13.92153
G1 X168.804 Y116.453 E13.95038
G1 X168.829 Y117.114 E13.97238
G1 X168.835 Y117.674 E13.991
G1 X168.82 Y118.229 E14.00947
G1 X168.783 Y118.969 E14.03411
G1 X168.735 Y119.71 E14.05881
G1 X168.647 Y120.536 E14.08644
G1 X168.515 Y121.433 E14.11659
G1 X168.358 Y122.356 E14.14773
G1 X168.256 Y122.869 E14.16513
G1 X168.119 Y123.443 E14.18476
G1 X167.908 Y124.237 E14.21208
G1 X167.717 Y124.912 E14.23541
G1 X167.462 Y125.692 E14.26271
G1 X167.155 Y126.517 E14.29199
G1 X166.803 Y127.401 E14.32363
G1 X166.59 Y127.892 E14.34143
G1 X166.361 Y128.374 E14.35918
G1 X165.989 Y129.11 E14.38661
G1 X165.658 Y129.739 E14.41025
G1 X165.251 Y130.444 E14.43733
G1 X164.777 Y131.193 E14.46681
G1 X164.241 Y131.998 E14.49898
G1 X163.768 Y132.646 E14.52566
G1 X163.227 Y133.329 E14.55464
G1 X162.639 Y134.04 E14.58533
G1 X162.294 Y134.433 E14.60272
G1 X161.897 Y134.854 E14.62197
G1 X161.277 Y135.477 E14.6512
G1 X160.796 Y135.945 E14.67352
G1 X160.191 Y136.488 E14.70056
G1 X159.52 Y137.044 E14.72954
G1 X158.763 Y137.644 E14.76167
G1 X158.103 Y138.123 E14.78879
G1 X157.424 Y138.575 E14.81592
G1 X156.569 Y139.117 E14.84959
G1 X156.085 Y139.404 E14.86831
G1 X155.611 Y139.661 E14.88624
G1 X154.896 Y140.027 E14.91296
G1 X154.237 Y140.351 E14.93738
G1 X153.585 Y140.643 E14.96114
G1 X152.872 Y140.929 E14.98669
G1 X151.846 Y141.312 E15.02312
G1 X151.037 Y141.576 E15.05142
G1 X150.236 Y141.801 E15.0791
G1 X149.254 Y142.053 E15.11282
G1 X148.462 Y142.221 E15.13974
G1 X147.645 Y142.36 E15.16731
G1 X146.653 Y142.505 E15.20065
G1 X146.108 Y142.569 E15.2189
G1 X145.559 Y142.612 E15.23722
G1 X144.695 Y142.658 E15.266
G1 X144.038 Y142.683 E15.28786
G1 X143.479 Y142.689 E15.30646
G1 X142.918 Y142.674 E15.32512
G1 X142.341 Y142.646 E15.34434
G1 X141.42 Y142.587 E15.37503
G1 X140.594 Y142.5 E15.40266
G1 X139.733 Y142.373 E15.4316
G1 X138.775 Y142.21 E15.46393
G1 X138.21 Y142.096 E15.4831
G1 X137.157 Y141.851 E15.51905
G1 X135.82 Y141.527 E15.56481
G1 X133.356 Y141.004 E15.64859
G1 X130.821 Y140.54 E15.7343
G1 X128.318 Y140.156 E15.81853
G1 X125.824 Y139.844 E15.90213
G1 X123.27 Y139.598 E15.98747
G1 X120.77 Y139.428 E16.07081
G1 X118.203 Y139.326 E16.15625
G1 X115.674 Y139.298 E16.24037
G1 X113.172 Y139.341 E16.3236
G1 X110.569 Y139.459 E16.41027
G1 X108.083 Y139.642 E16.49318
G1 X105.545 Y139.902 E16.57803
G1 X103.006 Y140.234 E16.6632
G1 X100.524 Y140.631 E16.7468
G1 X98.012 Y141.105 E16.83182
G1 X95.583 Y141.634 E16.91451
G1 X91.974 Y142.555 E17.03839
G1 X91.209 Y142.76 E17.06473
G1 X90.481 Y142.944 E17.08971
G1 X89.693 Y143.111 E17.1165
G1 X88.876 Y143.25 E17.14406
G1 X87.884 Y143.395 E17.17741
G1 X87.339 Y143.459 E17.19566
G1 X86.79 Y143.502 E17.21397
G1 X85.926 Y143.548 E17.24275
G1 X85.269 Y143.573 E17.26462
G1 X84.71 Y143.579 E17.28321
G1 X84.149 Y143.564 E17.30188
G1 X83.572 Y143.536 E17.32109
G1 X82.651 Y143.477 E17.35179
G1 X81.819 Y143.389 E17.37961
G1 X80.934 Y143.258 E17.40937
G1 X80.019 Y143.102 E17.44024
G1 X79.508 Y143 E17.45757
G1 X78.934 Y142.863 E17.4772
G1 X78.138 Y142.651 E17.5046
G1 X77.46 Y142.459 E17.52803
G1 X76.793 Y142.245 E17.55133
