;FLAVOR:Marlin
;TIME:2442
;Filament used: 1.43495m
;Layer height: 0.2
;MINX:76.521
;MINY:76.512
;MINZ:0.2
;MAXX:158.48
;MAXY:158.489
;MAXZ:10
;Generated with Cura_SteamEngine main
M140 S60
M105
M190 S60
M104 S200
M105
M109 S200
M82 ;absolute extrusion mode
; Ender 3 Custom Start G-code
G92 E0 ; Reset Extruder
G28 ; Home all axes
G1 Z2.0 F3000 ; Move Z Axis up little to prevent scratching of Heat Bed
G1 X0.1 Y20 Z0.3 F5000.0 ; Move to start position
G1 X0.1 Y200.0 Z0.3 F1500.0 E15 ; Draw the first line
G1 X0.4 Y200.0 Z0.3 F5000.0 ; Move to side a little
G1 X0.4 Y20 Z0.3 F1500.0 E30 ; Draw the second line
G92 E0 ; Reset Extruder
G1 Z2.0 F3000 ; Move Z Axis up little to prevent scratching of Heat Bed
G1 X5 Y20 Z0.3 F5000.0 ; Move over to prevent blob squish
G92 E0
G92 E0
G1 F2700 E-5
;LAYER_COUNT:50
;LAYER:0
M107
G0 F6000 X87.983 Y89.075 Z0.2
G0 X84.063 Y93.825
;TYPE:SKIRT
G1 F2700 E0
G1 F1200 X84.487 Y93.214 E0.02474
G1 X84.841 Y92.732 E0.04463
G1 X85.214 Y92.262 E0.06458
G1 X86.658 Y90.531 E0.13956
G1 X87.144 Y89.964 E0.1644
G1 X87.588 Y89.477 E0.18632
G1 X87.983 Y89.075 E0.20506
G1 X89.588 Y87.508 E0.27967
G1 X90.137 Y86.987 E0.30484
G1 X90.624 Y86.552 E0.32656
G1 X91.045 Y86.203 E0.34475
G1 X92.736 Y84.862 E0.41653
G1 X93.415 Y84.339 E0.44503
G1 X93.887 Y83.995 E0.46446
G1 X94.436 Y83.626 E0.48646
G1 X96.235 Y82.481 E0.55739
G1 X96.975 Y82.026 E0.58628
G1 X97.446 Y81.753 E0.60439
G1 X98.041 Y81.435 E0.62683
G1 X99.953 Y80.477 E0.69796
G1 X100.712 Y80.111 E0.72598
G1 X101.256 Y79.867 E0.74581
G1 X101.832 Y79.635 E0.76647
G1 X103.998 Y78.817 E0.84347
G1 X104.647 Y78.583 E0.86642
G1 X105.34 Y78.359 E0.89064
G1 X106.001 Y78.172 E0.91349
G1 X107.999 Y77.646 E0.98221
G1 X108.713 Y77.468 E1.00668
G1 X109.353 Y77.328 E1.02847
G1 X109.867 Y77.237 E1.04583
G1 X112.125 Y76.884 E1.12185
G1 X112.89 Y76.776 E1.14754
G1 X113.523 Y76.705 E1.16873
G1 X114.053 Y76.666 E1.18641
G1 X116.169 Y76.554 E1.25688
G1 X117.094 Y76.518 E1.28767
G1 X117.717 Y76.512 E1.30839
G1 X118.283 Y76.528 E1.32723
G1 X120.558 Y76.644 E1.40299
G1 X121.307 Y76.693 E1.42796
G1 X121.898 Y76.748 E1.4477
G1 X122.514 Y76.828 E1.46836
G1 X124.62 Y77.154 E1.53924
G1 X125.476 Y77.299 E1.56811
G1 X126.183 Y77.443 E1.59211
G1 X126.922 Y77.623 E1.61741
G1 X128.932 Y78.155 E1.68657
G1 X129.623 Y78.349 E1.71044
G1 X130.199 Y78.528 E1.7305
G1 X130.744 Y78.72 E1.74972
G1 X132.905 Y79.534 E1.82652
G1 X133.526 Y79.778 E1.84871
G1 X134.115 Y80.03 E1.87002
G1 X134.635 Y80.275 E1.88914
G1 X136.586 Y81.248 E1.96165
G1 X137.324 Y81.629 E1.98928
G1 X137.85 Y81.92 E2.00927
G1 X138.405 Y82.254 E2.03081
G1 X140.321 Y83.472 E2.10633
G1 X140.918 Y83.864 E2.13008
G1 X141.444 Y84.232 E2.15143
G1 X141.892 Y84.571 E2.17012
G1 X143.709 Y86.007 E2.24715
G1 X144.232 Y86.433 E2.26958
G1 X144.7 Y86.837 E2.29015
G1 X145.138 Y87.244 E2.31003
G1 X146.676 Y88.74 E2.38139
G1 X147.289 Y89.353 E2.41023
G1 X147.697 Y89.785 E2.42999
G1 X148.126 Y90.273 E2.4516
G1 X149.592 Y92.03 E2.52771
G1 X150.046 Y92.591 E2.55171
G1 X150.41 Y93.067 E2.57164
G1 X150.75 Y93.547 E2.59121
G1 X151.949 Y95.326 E2.66256
G1 X152.424 Y96.053 E2.69145
G1 X152.741 Y96.568 E2.71156
G1 X153.042 Y97.103 E2.73198
G1 X154.113 Y99.113 E2.80773
G1 X154.439 Y99.745 E2.83138
G1 X154.722 Y100.336 E2.85317
G1 X154.952 Y100.868 E2.87245
G1 X155.736 Y102.79 E2.94149
G1 X156.068 Y103.636 E2.97172
G1 X156.279 Y104.224 E2.9925
G1 X156.47 Y104.826 E3.0135
G1 X157.111 Y107.027 E3.08975
G1 X157.291 Y107.681 E3.11231
G1 X157.434 Y108.262 E3.13221
G1 X157.573 Y108.934 E3.15504
G1 X157.98 Y111.167 E3.23053
G1 X158.091 Y111.829 E3.25286
G1 X158.174 Y112.422 E3.27277
G1 X158.233 Y113.012 E3.29249
G1 X158.413 Y115.321 E3.36952
G1 X158.458 Y116.033 E3.39325
G1 X158.48 Y116.638 E3.41339
G1 X158.479 Y117.249 E3.43371
G1 X158.427 Y119.337 E3.50318
G1 X158.392 Y120.262 E3.53396
G1 X158.333 Y121.044 E3.56005
G1 X158.256 Y121.723 E3.58278
G1 X157.994 Y123.732 E3.65016
G1 X157.894 Y124.43 E3.67361
G1 X157.788 Y125.043 E3.69431
G1 X157.66 Y125.652 E3.715
G1 X157.137 Y127.871 E3.79083
G1 X156.97 Y128.538 E3.8137
G1 X156.811 Y129.107 E3.83335
G1 X156.618 Y129.709 E3.85438
G1 X155.851 Y131.918 E3.93215
G1 X155.615 Y132.566 E3.95509
G1 X155.332 Y133.268 E3.98026
G1 X155.029 Y133.944 E4.0049
G1 X154.199 Y135.713 E4.06989
G1 X153.863 Y136.406 E4.09551
G1 X153.57 Y136.968 E4.11659
G1 X153.278 Y137.481 E4.13622
G1 X152.203 Y139.273 E4.20573
G1 X151.733 Y140.033 E4.23545
G1 X151.369 Y140.584 E4.25741
G1 X151.042 Y141.04 E4.27607
G1 X149.685 Y142.851 E4.35134
G1 X149.239 Y143.429 E4.37562
G1 X148.838 Y143.918 E4.39666
G1 X148.449 Y144.359 E4.41622
G1 X147.01 Y145.918 E4.48678
G1 X146.388 Y146.572 E4.5168
G1 X145.98 Y146.978 E4.53594
G1 X145.542 Y147.383 E4.55579
G1 X143.811 Y148.907 E4.63249
G1 X143.248 Y149.387 E4.6571
G1 X142.738 Y149.796 E4.67884
G1 X142.171 Y150.218 E4.70235
G1 X140.422 Y151.459 E4.77368
G1 X139.861 Y151.847 E4.79637
G1 X139.259 Y152.235 E4.82019
G1 X138.678 Y152.58 E4.84266
G1 X136.914 Y153.579 E4.91009
G1 X136.154 Y153.994 E4.93889
G1 X135.504 Y154.321 E4.96309
G1 X134.889 Y154.603 E4.98559
G1 X133.159 Y155.359 E5.04839
G1 X132.339 Y155.704 E5.07798
G1 X131.683 Y155.956 E5.10135
G1 X131.023 Y156.181 E5.12454
G1 X129.181 Y156.768 E5.18884
G1 X128.315 Y157.032 E5.21895
G1 X127.712 Y157.197 E5.23975
G1 X127.171 Y157.322 E5.25821
G1 X124.925 Y157.793 E5.33454
G1 X124.224 Y157.93 E5.3583
G1 X123.581 Y158.036 E5.37997
G1 X123.03 Y158.105 E5.39844
G1 X120.859 Y158.331 E5.47104
G1 X119.767 Y158.424 E5.50749
G1 X119.179 Y158.457 E5.52708
G1 X118.501 Y158.477 E5.54964
G1 X117.199 Y158.489 E5.59295
G1 X116.218 Y158.47 E5.62558
G1 X115.513 Y158.441 E5.64905
G1 X114.959 Y158.407 E5.66751
G1 X112.314 Y158.141 E5.75593
G1 X111.576 Y158.054 E5.78064
G1 X110.992 Y157.969 E5.80027
G1 X110.399 Y157.861 E5.82032
G1 X108.312 Y157.426 E5.89122
G1 X107.466 Y157.237 E5.92006
G1 X106.831 Y157.075 E5.94185
G1 X106.266 Y156.908 E5.96145
G1 X104.22 Y156.257 E6.03286
G1 X103.452 Y156.001 E6.05979
G1 X102.908 Y155.803 E6.07904
G1 X102.292 Y155.553 E6.10115
G1 X100.334 Y154.7 E6.17219
G1 X99.537 Y154.338 E6.2013
G1 X99.021 Y154.087 E6.22039
G1 X98.462 Y153.788 E6.24147
G1 X96.458 Y152.655 E6.31804
G1 X95.837 Y152.292 E6.34196
G1 X95.309 Y151.962 E6.36267
G1 X94.828 Y151.637 E6.38198
G1 X93.078 Y150.394 E6.45337
G1 X92.386 Y149.888 E6.48189
G1 X91.919 Y149.527 E6.50152
G1 X91.436 Y149.123 E6.52246
G1 X89.862 Y147.741 E6.59213
G1 X89.197 Y147.142 E6.6219
G1 X88.707 Y146.672 E6.64448
G1 X88.349 Y146.301 E6.66163
G1 X86.789 Y144.618 E6.73795
G1 X86.28 Y144.051 E6.7633
G1 X85.915 Y143.623 E6.782
G1 X85.516 Y143.118 E6.80341
G1 X84.143 Y141.289 E6.87948
G1 X83.724 Y140.713 E6.90317
G1 X83.397 Y140.239 E6.92232
G1 X83.074 Y139.73 E6.94237
G1 X81.955 Y137.87 E7.01457
G1 X81.512 Y137.11 E7.04383
G1 X81.223 Y136.581 E7.06387
G1 X80.964 Y136.058 E7.08329
G1 X80.05 Y134.109 E7.15488
G1 X79.696 Y133.327 E7.18343
G1 X79.454 Y132.749 E7.20428
G1 X79.232 Y132.156 E7.22534
G1 X78.476 Y129.983 E7.30186
G1 X78.257 Y129.32 E7.32508
G1 X78.091 Y128.768 E7.34425
G1 X77.939 Y128.187 E7.36423
G1 X77.397 Y125.895 E7.44256
G1 X77.261 Y125.281 E7.46348
G1 X77.147 Y124.691 E7.48347
G1 X77.049 Y124.054 E7.5049
G1 X76.757 Y121.812 E7.5801
G1 X76.671 Y121.065 E7.60511
G1 X76.617 Y120.44 E7.62598
G1 X76.589 Y119.858 E7.64536
G1 X76.532 Y117.723 E7.71639
G1 X76.521 Y116.845 E7.7456
G1 X76.532 Y116.207 E7.76682
G1 X76.565 Y115.603 E7.78694
G1 X76.725 Y113.513 E7.85666
G1 X76.805 Y112.638 E7.88588
G1 X76.878 Y112.029 E7.90628
G1 X76.978 Y111.399 E7.9275
G1 X77.386 Y109.161 E8.00316
G1 X77.523 Y108.468 E8.02665
G1 X77.668 Y107.832 E8.04835
G1 X77.836 Y107.203 E8.07
G1 X78.406 Y105.245 E8.13783
G1 X78.658 Y104.421 E8.16649
G1 X78.851 Y103.852 E8.18647
G1 X79.075 Y103.258 E8.20759
G1 X79.866 Y101.309 E8.27755
G1 X80.214 Y100.489 E8.30718
G1 X80.451 Y99.969 E8.32618
G1 X80.745 Y99.381 E8.34805
G1 X81.746 Y97.498 E8.41898
G1 X82.164 Y96.738 E8.44783
G1 X82.485 Y96.194 E8.46883
G1 X82.773 Y95.745 E8.48658
G1 X84.063 Y93.825 E8.56351
G1 F2700 E3.56351
G0 F6000 X80.672 Y101.456
G1 F2700 E8.56351
G1 F1200 X80.95 Y100.802 E8.58715
G1 X81.17 Y100.319 E8.6048
G1 X81.452 Y99.756 E8.62574
G1 X82.528 Y97.734 E8.70192
G1 X82.864 Y97.125 E8.72506
G1 X83.162 Y96.62 E8.74456
G1 X83.437 Y96.191 E8.76151
G1 X84.72 Y94.281 E8.83804
G1 X85.144 Y93.67 E8.86277
G1 X85.473 Y93.223 E8.88123
G1 X85.829 Y92.775 E8.90027
G1 X87.266 Y91.052 E8.97489
G1 X87.752 Y90.485 E8.99973
G1 X88.163 Y90.033 E9.02005
G1 X88.542 Y89.647 E9.03804
G1 X90.031 Y88.192 E9.10728
G1 X90.688 Y87.567 E9.13744
G1 X91.139 Y87.164 E9.15756
G1 X91.542 Y86.83 E9.17497
G1 X93.233 Y85.489 E9.24675
G1 X93.903 Y84.973 E9.27487
G1 X94.341 Y84.654 E9.2929
G1 X94.865 Y84.301 E9.31391
G1 X96.664 Y83.156 E9.38484
G1 X97.393 Y82.708 E9.4133
G1 X97.83 Y82.455 E9.43009
G1 X98.4 Y82.151 E9.45158
G1 X100.462 Y81.119 E9.52827
G1 X101.059 Y80.832 E9.5503
G1 X101.563 Y80.606 E9.56867
G1 X102.115 Y80.383 E9.58847
G1 X104.269 Y79.57 E9.66505
G1 X104.918 Y79.336 E9.68799
G1 X105.561 Y79.128 E9.71047
G1 X106.205 Y78.945 E9.73274
G1 X108.059 Y78.456 E9.79651
G1 X108.907 Y78.244 E9.82559
G1 X109.5 Y78.115 E9.84577
G1 X109.991 Y78.027 E9.86236
G1 X112.082 Y77.699 E9.93276
G1 X113.002 Y77.568 E9.96367
G1 X113.589 Y77.503 E9.98331
G1 X114.095 Y77.465 E10.00019
G1 X116.362 Y77.346 E10.07569
G1 X117.124 Y77.317 E10.10105
G1 X117.702 Y77.312 E10.12028
G1 X118.243 Y77.327 E10.13828
G1 X120.356 Y77.434 E10.20865
G1 X121.255 Y77.492 E10.23861
G1 X121.803 Y77.542 E10.25691
G1 X122.391 Y77.619 E10.27664
G1 X124.497 Y77.945 E10.34752
G1 X125.342 Y78.088 E10.37602
G1 X125.997 Y78.221 E10.39825
G1 X126.718 Y78.396 E10.42293
G1 X128.565 Y78.884 E10.48647
G1 X129.407 Y79.12 E10.51555
G1 X129.941 Y79.286 E10.53415
G1 X130.462 Y79.468 E10.55251
G1 X132.474 Y80.225 E10.62401
G1 X133.233 Y80.523 E10.65113
G1 X133.78 Y80.756 E10.6709
G1 X134.278 Y80.991 E10.68922
G1 X136.367 Y82.034 E10.76688
G1 X136.956 Y82.339 E10.78894
G1 X137.444 Y82.609 E10.80749
G1 X137.976 Y82.929 E10.82814
G1 X139.752 Y84.057 E10.89811
G1 X140.478 Y84.533 E10.92699
G1 X140.966 Y84.874 E10.94679
G1 X141.396 Y85.199 E10.96472
G1 X143.083 Y86.531 E11.03621
G1 X143.727 Y87.054 E11.0638
G1 X144.161 Y87.428 E11.08285
G1 X144.58 Y87.817 E11.10187
G1 X146.118 Y89.313 E11.17323
G1 X146.723 Y89.918 E11.20169
G1 X147.101 Y90.318 E11.21999
G1 X147.512 Y90.786 E11.24071
G1 X148.97 Y92.533 E11.31639
G1 X149.424 Y93.094 E11.3404
G1 X149.762 Y93.536 E11.3589
G1 X150.086 Y93.994 E11.37756
G1 X151.285 Y95.773 E11.44892
G1 X151.754 Y96.49 E11.47741
G1 X152.048 Y96.968 E11.49608
G1 X152.336 Y97.479 E11.51559
G1 X153.402 Y99.48 E11.591
G1 X153.728 Y100.112 E11.61465
G1 X153.99 Y100.66 E11.63485
G1 X154.211 Y101.171 E11.65337
G1 X155.05 Y103.23 E11.72732
G1 X155.323 Y103.928 E11.75225
G1 X155.519 Y104.473 E11.77151
G1 X155.702 Y105.05 E11.79164
G1 X156.297 Y107.09 E11.86232
G1 X156.519 Y107.893 E11.89003
G1 X156.652 Y108.432 E11.9085
G1 X156.786 Y109.078 E11.93044
G1 X157.191 Y111.299 E12.00553
G1 X157.302 Y111.961 E12.02785
G1 X157.379 Y112.512 E12.04636
G1 X157.436 Y113.074 E12.06515
G1 X157.615 Y115.372 E12.14181
G1 X157.66 Y116.084 E12.16554
G1 X157.68 Y116.645 E12.18421
G1 X157.679 Y117.229 E12.20363
G1 X157.627 Y119.317 E12.2731
G1 X157.592 Y120.231 E12.30352
G1 X157.538 Y120.956 E12.3277
G1 X157.463 Y121.62 E12.34993
G1 X157.202 Y123.619 E12.41698
G1 X157.102 Y124.317 E12.44043
G1 X157.004 Y124.885 E12.4596
G1 X156.881 Y125.469 E12.47945
G1 X156.361 Y127.676 E12.55487
G1 X156.194 Y128.343 E12.57774
G1 X156.046 Y128.871 E12.59598
G1 X155.862 Y129.447 E12.61609
G1 X155.099 Y131.645 E12.69347
G1 X154.863 Y132.293 E12.71641
G1 X154.601 Y132.943 E12.73972
G1 X154.39 Y133.418 E12.75701
G1 X153.479 Y135.364 E12.82847
G1 X153.143 Y136.057 E12.85409
G1 X152.872 Y136.578 E12.87362
G1 X152.592 Y137.069 E12.89242
G1 X151.517 Y138.861 E12.96192
G1 X151.053 Y139.612 E12.99128
G1 X150.716 Y140.123 E13.01164
G1 X150.402 Y140.561 E13.02957
G1 X149.14 Y142.246 E13.09959
G1 X148.605 Y142.94 E13.12873
G1 X148.234 Y143.394 E13.14823
G1 X147.861 Y143.816 E13.16697
G1 X146.307 Y145.498 E13.24313
G1 X145.809 Y146.02 E13.26713
G1 X145.431 Y146.396 E13.28486
G1 X145.013 Y146.783 E13.30381
G1 X143.292 Y148.298 E13.38007
G1 X142.729 Y148.778 E13.40467
G1 X142.256 Y149.157 E13.42483
G1 X141.707 Y149.566 E13.4476
G1 X139.967 Y150.801 E13.51857
G1 X139.406 Y151.189 E13.54126
G1 X138.848 Y151.549 E13.56334
G1 X138.283 Y151.884 E13.58519
G1 X136.373 Y152.964 E13.65817
G1 X135.771 Y153.292 E13.68097
G1 X135.168 Y153.595 E13.70342
G1 X134.568 Y153.87 E13.72537
G1 X132.705 Y154.683 E13.79298
G1 X132.029 Y154.967 E13.81736
G1 X131.42 Y155.2 E13.83905
G1 X130.78 Y155.418 E13.86154
G1 X128.807 Y156.046 E13.93041
G1 X128.083 Y156.266 E13.95557
G1 X127.523 Y156.419 E13.97488
G1 X127.007 Y156.539 E13.9925
G1 X124.771 Y157.008 E14.06849
G1 X124.07 Y157.145 E14.09225
G1 X123.474 Y157.243 E14.11234
G1 X122.947 Y157.309 E14.13
G1 X120.566 Y157.555 E14.20961
G1 X119.701 Y157.627 E14.23848
G1 X119.156 Y157.658 E14.25664
G1 X118.478 Y157.678 E14.2792
G1 X117.213 Y157.69 E14.32128
G1 X116.499 Y157.678 E14.34503
G1 X115.546 Y157.641 E14.37675
G1 X115.014 Y157.609 E14.39447
G1 X112.408 Y157.347 E14.48159
G1 X111.67 Y157.26 E14.5063
G1 X111.128 Y157.181 E14.52452
G1 X110.563 Y157.077 E14.54363
G1 X108.329 Y156.611 E14.61953
G1 X107.641 Y156.457 E14.64298
G1 X107.052 Y156.306 E14.6632
G1 X106.508 Y156.146 E14.68206
G1 X104.462 Y155.495 E14.75348
G1 X103.706 Y155.243 E14.77998
G1 X103.202 Y155.059 E14.79783
G1 X102.611 Y154.819 E14.81904
G1 X100.498 Y153.897 E14.89572
G1 X99.868 Y153.61 E14.91874
G1 X99.39 Y153.377 E14.93643
G1 X98.855 Y153.092 E14.95659
G1 X96.99 Y152.038 E15.02784
G1 X96.241 Y151.601 E15.05669
G1 X95.751 Y151.296 E15.07588
G1 X95.291 Y150.985 E15.09435
G1 X93.541 Y149.742 E15.16574
G1 X92.859 Y149.243 E15.19385
G1 X92.426 Y148.908 E15.21206
G1 X91.964 Y148.522 E15.23208
G1 X90.39 Y147.14 E15.30175
G1 X89.733 Y146.548 E15.33116
G1 X89.278 Y146.112 E15.35212
G1 X88.935 Y145.757 E15.36854
G1 X87.497 Y144.207 E15.43887
G1 X86.876 Y143.517 E15.46974
G1 X86.537 Y143.12 E15.4871
G1 X86.155 Y142.637 E15.50759
G1 X84.884 Y140.946 E15.57794
G1 X84.371 Y140.242 E15.60692
G1 X84.068 Y139.803 E15.62466
G1 X83.76 Y139.317 E15.64379
G1 X82.564 Y137.327 E15.72102
G1 X82.204 Y136.708 E15.74483
G1 X81.936 Y136.217 E15.76344
G1 X81.688 Y135.719 E15.78194
G1 X80.774 Y133.77 E15.85354
G1 X80.425 Y132.998 E15.88172
G1 X80.201 Y132.462 E15.90104
G1 X79.988 Y131.893 E15.92125
G1 X79.236 Y129.732 E15.99735
G1 X79.017 Y129.069 E16.02057
G1 X78.862 Y128.558 E16.03833
G1 X78.717 Y128.003 E16.05741
G1 X78.178 Y125.722 E16.13537
G1 X78.042 Y125.108 E16.15629
G1 X77.937 Y124.561 E16.17481
G1 X77.842 Y123.95 E16.19538
G1 X77.552 Y121.721 E16.27014
G1 X77.466 Y120.974 E16.29515
G1 X77.416 Y120.394 E16.31451
G1 X77.389 Y119.836 E16.33309
G1 X77.329 Y117.544 E16.40935
G1 X77.321 Y116.836 E16.4329
G1 X77.331 Y116.245 E16.45256
G1 X77.363 Y115.664 E16.47191
G1 X77.536 Y113.415 E16.54694
G1 X77.601 Y112.711 E16.57045
G1 X77.669 Y112.146 E16.58938
G1 X77.765 Y111.542 E16.60972
G1 X78.171 Y109.316 E16.68498
G1 X78.308 Y108.623 E16.70847
G1 X78.442 Y108.034 E16.72856
G1 X78.605 Y107.427 E16.74947
G1 X79.218 Y105.323 E16.82236
G1 X79.423 Y104.656 E16.84557
G1 X79.601 Y104.129 E16.86407
G1 X79.817 Y103.559 E16.88434
G1 X80.672 Y101.456 E16.95985
G1 F2700 E11.95985
G0 F6000 X77.778 Y109.238
G1 F2700 E16.95985
G1 F1200 X77.915 Y108.545 E16.98334
G1 X78.055 Y107.933 E17.00422
G1 X78.22 Y107.315 E17.0255
G1 X78.79 Y105.357 E17.09332
G1 X79.041 Y104.539 E17.12178
G1 X79.226 Y103.99 E17.14105
G1 X79.446 Y103.409 E17.16172
G1 X80.237 Y101.46 E17.23167
G1 X80.582 Y100.645 E17.26111
G1 X80.81 Y100.144 E17.27942
G1 X81.098 Y99.568 E17.30084
G1 X82.099 Y97.685 E17.37177
G1 X82.514 Y96.931 E17.40039
G1 X82.823 Y96.407 E17.42062
G1 X83.105 Y95.968 E17.43798
G1 X84.391 Y94.053 E17.5147
G1 X84.815 Y93.442 E17.53944
G1 X85.157 Y92.977 E17.55863
G1 X85.521 Y92.519 E17.57809
G1 X86.867 Y90.904 E17.64802
